X:1
T:Title
%%score { ( 1 4 ) | ( 2 3 ) }
L:1/8
Q:1/4=108
M:4/4
K:Db
V:1 treble nm="Grand Piano"
V:4 treble 
V:2 bass 
V:3 bass 
V:1
 F2 F2- FE D>E | F2 [FA]6 | B2 B>c d>c d>B | [DFA]2 [A,DF]2 [CE]4 | %4
w: C.~Austin~Miles * * * * *||||
 [EG]2 [EG]2- [EG][DF] [CE]>[EG] | [DF]2 [FA]4 [FA]>[FB] | [Ec]2 [Fd]2 [Ec]2 [DB]2 | [CA]6 z2 | %8
w: ||||
 F3 E D>E F>[EG] | [FA]2 [Fd]6 | [Bd]3 [Bd] [Ac]2 .[B,GB]2 | [DFA]2 [A,EG]2 [A,DF]2 [A,CE]2 | %12
w: ||||
 F3 E D>E F>[EG] | [FA]2 [Fd]4 [FA]>[_FB] | [Ec]2 [Ee]2 [=Ge]>[FGd] [EGc]>[B,GB] | %15
w: |||
 A2- [EA-]>[FA-] [GA]2 z2 | F3 E D>E F>[EG] | [FA]2 [Fd]6 | [Bd]3 [Bd] [Ac]2 .[B,GB]2 | %19
w: ||||
 [DFA]2 [A,EG]2 [A,DF]2 [A,CE]2 | [A,DF]3 [A,EG] [DFA]>F G>A | B2 [Gc]2 [Fd]2 e2 | d4 c4 | %23
w: ||||
 [Fd]6 z2 |] %24
w: |
V:2
 [D,A,D]2 [D,A,D]2- [D,A,D][D,G,D] [D,F,]>[D,G,D] | [D,A,D]2 [D,D]6 | %2
 [G,DG]2 [G,DG]>[G,CG] [G,B,G]>[G,=A,G] [G,B,G]>[G,DG] | D,2 D,F, A,4 | %4
 [A,,A,]2 [A,,A,]2- [A,,A,][A,,A,] [A,,A,]>[A,,A,] | [D,A,]2 [D,D]4 [D,A,]>[D,A,] | %6
 [E,A,]2 [E,A,]2 [E,=G,]2 [E,G,]2 | [A,,A,]6 z2 | [D,A,D]3 [D,G,D] [D,F,]>[D,G,D] [D,A,D]>[D,A,] | %9
 [D,D]2 [D,A,]6 | G,3 G, [G,A,]2 z C | D,2 C,2 D,2 A,,2 | %12
 [D,A,D]3 [D,G,D] [D,F,]>[D,G,D] [D,A,D]>[D,A,] | [D,D]2 [D,A,]4 [D,A,]>[D,A,] | %14
 [E,A,]2 [E,C]2 [E,B,]>E, E,>E, | z2[K:treble] C>C C2 z2 | %16
 [D,A,D]3 [D,G,D] [D,F,]>[D,G,D] [D,A,D]>[D,A,] | [D,D]2 [D,A,]6 | G,3 G, [G,A,]2 z C | %19
 D,2 C,2 D,2 A,,2 | D,3 D, D,>[D,A,D] [E,A,C]>[E,A,D] | [G,D]2 [E,A,]2 [D,A,]2[K:treble] [G,B,G]2 | %22
 [A,F]4 [A,EG]4 | [D,D]6 z2 |] %24
V:3
 x8 | x8 | x8 | x8 | x8 | x8 | x8 | x8 | x8 | x8 | z4 z2 G,2 | x8 | x8 | x8 | x8 | %15
 A,6[K:treble] z2 | x8 | x8 | z4 z2 G,2 | x8 | x8 | x6[K:treble] x2 | x8 | x8 |] %24
V:4
 x8 | x8 | x8 | x8 | x8 | x8 | x8 | x8 | x8 | x8 | x8 | x8 | x8 | x8 | x8 | C2 z2 z4 | x8 | x8 | %18
 x8 | x8 | x8 | x8 | x8 | x8 |] %24

